X:1
T:[ID 8-65]
T:[ID 8-65]
T:Bezeichnung standardisiert: March in B\"ohmen; March in B\"ohmen
T:Urheber unbekannt Datum in der hier transkribierten schriftlichen Quelle: 1792
C:Urheber unbekannt
C:Datum in der hier transkribierten schriftlichen Quelle: 1792
L:1/8
M:2/4
K:G
V:1 treble 
V:1
 GG/G/ G/A/B/c/ | dd/e/ d/c/B/A/ | G(3G/A/B/ A(3A/B/c/ | c2 B2 | BB/B/ B/^c/d/B/ | AA/B/ Ag | %6
 fe/d/ ed/^c/ | dd/d/ d2 :: DD/D/ Dd |{e} dc/B/ c2 | DD/D/ Dc |{d} cB/A/ B2 | GG/G/ G/A/B/c/ | %13
 dd/e/ dc | BA/G/ AG/F/ | GG/G/ G2 :| %16

